icons/logo.svg

<svg width="70" height="73" viewBox="0 0 70 73" fill="none" xmlns="http://www.w3.org/2000/svg">
<circle cx="35" cy="35" r="35" fill="#339933"/>
<g clip-path="url(#clip0_1_840)">
<mask id="mask0_1_840" style="mask-type:alpha" maskUnits="userSpaceOnUse" x="19" y="55" width="33" height="26">
<path fill-rule="evenodd" clip-rule="evenodd" d="M46.9311 60.2366C45.7197 57.6671 43.106 55.8889 40.077 55.8889C38.8869 55.8889 37.761 56.1634 36.759 56.6525C36.1941 56.1761 35.4643 55.8889 34.6674 55.8889C33.2493 55.8889 32.0436 56.7984 31.6017 58.0659C30.4972 58.1468 29.495 58.5962 28.7176 59.2917C28.3746 59.1895 28.0112 59.1347 27.635 59.1347C26.1047 59.1347 24.7864 60.0424 24.1892 61.3488C21.5521 61.71 19.5205 63.9718 19.5205 66.7081C19.5205 69.6958 21.9425 72.1178 24.9301 72.1178C25.3173 72.1178 25.695 72.0771 26.0591 71.9998C26.5431 76.9251 30.6969 80.7732 35.7494 80.7732C40.4011 80.7732 44.2909 77.5114 45.2565 73.1502C45.509 73.1828 45.7664 73.1997 46.0277 73.1997C49.3142 73.1997 51.9783 70.5355 51.9783 67.2491C51.9783 65.3421 51.0813 63.6447 49.6862 62.5557C49.3264 61.3163 48.2475 60.3828 46.9311 60.2366Z" fill="white"/>
</mask>
<g mask="url(#mask0_1_840)">
<circle cx="35" cy="35" r="35" fill="white"/>
</g>
</g>
<path d="M39.4892 36.2492C38.6984 37.0038 37.8645 38.0255 37.1066 39.3955C36.3577 36.6995 35.4138 34.723 34.4596 33.276C38.8379 18.6893 17.5 18.1666 17.5 18.1666C17.5 18.1666 18.1229 36.3974 29.2667 35.9788C29.244 34.7581 29.0545 33.5238 28.789 32.3664C28.6154 31.6118 28.4089 30.8922 28.1956 30.2281C27.4831 28.0253 26.6787 26.4618 26.6787 26.4618C27.491 27.5502 28.2104 28.5888 28.8457 29.5651C31.0321 32.9196 32.2256 35.5285 32.7804 36.9065C34.1499 39.8402 35.3797 44.6654 35.3797 52.551C35.3797 53.4437 36.107 54.1666 36.9988 54.1666C37.8928 54.1666 38.6189 53.4437 38.6189 52.551C38.6189 49.9953 38.4953 47.7212 38.2718 45.6927C38.788 43.2173 39.5674 41.4603 40.3741 40.2158C40.904 39.2077 41.8808 37.4813 43.1969 35.7186C44.369 34.1505 45.8144 32.5531 47.4493 31.4126C47.4493 31.4126 44.0967 35.1133 43.88 38.736C53.1403 39.2179 53.5 24.6901 53.5 24.6901C53.5 24.6901 36.5529 25.2671 39.4892 36.2492Z" fill="white"/>
<defs>
<clipPath id="clip0_1_840">
<rect width="35.8333" height="16.6667" fill="white" transform="translate(17.5 55.8334)"/>
</clipPath>
</defs>
</svg>

<svg xmlns="http://www.w3.org/2000/svg" width="70" height="73" fill="none" viewBox="0 0 70 73"><circle cx="35" cy="35" r="35" fill="#393"/><g clip-path="url(#a)"><mask id="b" width="33" height="26" x="19" y="55" maskUnits="userSpaceOnUse" style="mask-type:alpha"><path fill="#fff" fill-rule="evenodd" d="M46.931 60.237a7.574 7.574 0 0 0-10.172-3.584 3.247 3.247 0 0 0-5.157 1.413 4.85 4.85 0 0 0-2.884 1.226 3.79 3.79 0 0 0-4.528 2.057 5.41 5.41 0 1 0 1.87 10.65c.483 4.926 4.637 8.774 9.69 8.774 4.651 0 8.54-3.262 9.507-7.623q.379.05.77.05a5.95 5.95 0 0 0 3.66-10.644 3.25 3.25 0 0 0-2.756-2.32" clip-rule="evenodd"/></mask><g mask="url(#b)"><circle cx="35" cy="35" r="35" fill="#fff"/></g></g><path fill="#fff" d="M39.49 36.25c-.792.754-1.626 1.776-2.383 3.145-.75-2.696-1.693-4.672-2.647-6.119 4.378-14.587-16.96-15.11-16.96-15.11s.623 18.231 11.767 17.813c-.023-1.22-.212-2.455-.478-3.613a26 26 0 0 0-.593-2.138c-.713-2.203-1.517-3.766-1.517-3.766a59 59 0 0 1 2.167 3.103c2.186 3.355 3.38 5.964 3.934 7.342 1.37 2.933 2.6 7.758 2.6 15.644 0 .893.727 1.616 1.619 1.616.894 0 1.62-.723 1.62-1.616 0-2.556-.124-4.83-.347-6.858.516-2.476 1.295-4.233 2.102-5.477a35 35 0 0 1 2.823-4.497c1.172-1.569 2.617-3.166 4.252-4.306 0 0-3.352 3.7-3.569 7.323 9.26.482 9.62-14.046 9.62-14.046s-16.947.577-14.01 11.56"/><defs><clipPath id="a"><path fill="#fff" d="M17.5 55.833h35.833V72.5H17.5z"/></clipPath></defs></svg>
